X:1531
T:Clarkson's Reel
R:reel
N:"collected from J. O'Neill"
B:"O'Neill's Dance Music of Ireland, 1531"
T: seisd .miccleirai.g
Z:transcribed by John B. Walsh, walsh@math.ubc.ca 8/23/96
M:C|
L:1/8
K:D
A,2|D2 DG (FE)DF|(AB)AF Acdc|T(BA)Bc (dB)AF|(EG)FD T(ED)B,E|
D2 DG (FE)DF|(AB)AF (Ac)dc|(Bd)ce (dB)AF|EGFE D2 Hx||
(eg)|fddf afdf|edcd efge|fddf afdf|edef d2 ((3ABc)|
defg afdf|edcd efge|((3fga) (ec) dBAF|G2 (FD) EDB,E||


